Dominus_Dark_Funeral/scalable/mimes/application-x-bittorrent.svg

<svg xmlns="http://www.w3.org/2000/svg" xmlns:xlink="http://www.w3.org/1999/xlink" viewBox="0 0 48 48"><defs><linearGradient id="b"><stop offset="0"/><stop offset="1" stop-opacity="0"/></linearGradient><linearGradient xlink:href="#a" id="c" x1="35.14" y1="54.66" x2="14.72" y2="-.61" gradientUnits="userSpaceOnUse"/><linearGradient id="a"><stop offset="0" stop-color="#2d5016"/><stop offset=".33" stop-color="#447821"/><stop offset=".5" stop-color="#64b131"/><stop offset=".63" stop-color="#57992a"/><stop offset=".76" stop-color="#71c837"/><stop offset="1" stop-color="#447821"/></linearGradient><linearGradient xlink:href="#b" id="d" x1="13.57" y1="23.64" x2="36.26" y2="25.86" gradientUnits="userSpaceOnUse"/></defs><path d="M40.89 17.42l-7.83 30.55H14.94L7.11 17.42 13.01.03H35z" fill="url(#c)"/><path d="M18.28 43.82l-3.34 4.15h18.12l-3.34-4.15z" fill="#17280b" fill-opacity=".1"/><path d="M13.01.03l3.08 4.15h15.8l3.1-4.15z" fill="#17280b" fill-opacity=".35"/><path d="M18.27 43.82l-3.34 4.15L7.1 17.42l4.44.16z" fill="#17280b" fill-opacity=".47"/><path d="M7.1 17.42L13 .03l3.09 4.15-4.55 13.4zm33.79 0L34.99.03 31.9 4.18l4.55 13.4z" fill="#17280b" fill-opacity=".71"/><path d="M29.72 43.82l3.34 4.15 7.83-30.55-4.44.16z" fill="#17280b" fill-opacity=".47"/><path d="M25.09 41.2L22.9 6.8l12.847 13.71-6.027 23.31-1.433-.05z" opacity=".64" fill="url(#d)"/><path d="M22.91 6.8v26.7h-3.94l6.12 7.7V14.48h3.94z" fill="#c6e9af"/></svg>

<?xml version="1.0" encoding="UTF-8" standalone="no"?>
<svg
   xmlns:dc="http://purl.org/dc/elements/1.1/"
   xmlns:cc="http://creativecommons.org/ns#"
   xmlns:rdf="http://www.w3.org/1999/02/22-rdf-syntax-ns#"
   xmlns:svg="http://www.w3.org/2000/svg"
   xmlns="http://www.w3.org/2000/svg"
   xmlns:xlink="http://www.w3.org/1999/xlink"
   xmlns:sodipodi="http://sodipodi.sourceforge.net/DTD/sodipodi-0.dtd"
   xmlns:inkscape="http://www.inkscape.org/namespaces/inkscape"
   viewBox="0 0 48 48"
   version="1.1"
   id="svg40"
   sodipodi:docname="application-x-bittorrent.svg"
   inkscape:version="0.92.4 (5da689c313, 2019-01-14)">
  <metadata
     id="metadata44">
    <rdf:RDF>
      <cc:Work
         rdf:about="">
        <dc:format>image/svg+xml</dc:format>
        <dc:type
           rdf:resource="http://purl.org/dc/dcmitype/StillImage" />
        <dc:title></dc:title>
      </cc:Work>
    </rdf:RDF>
  </metadata>
  <sodipodi:namedview
     pagecolor="#ffffff"
     bordercolor="#666666"
     borderopacity="1"
     objecttolerance="10"
     gridtolerance="10"
     guidetolerance="10"
     inkscape:pageopacity="0"
     inkscape:pageshadow="2"
     inkscape:window-width="1112"
     inkscape:window-height="480"
     id="namedview42"
     showgrid="false"
     inkscape:zoom="4.9166667"
     inkscape:cx="2.1355932"
     inkscape:cy="24"
     inkscape:window-x="0"
     inkscape:window-y="25"
     inkscape:window-maximized="0"
     inkscape:current-layer="svg40" />
  <defs
     id="defs22">
    <linearGradient
       id="b">
      <stop
         offset="0"
         id="stop2" />
      <stop
         offset="1"
         stop-opacity="0"
         id="stop4" />
    </linearGradient>
    <linearGradient
       xlink:href="#a"
       id="c"
       x1="35.14"
       y1="54.66"
       x2="14.72"
       y2="-.61"
       gradientUnits="userSpaceOnUse" />
    <linearGradient
       id="a">
      <stop
         offset="0"
         stop-color="#2d5016"
         id="stop8" />
      <stop
         offset=".33"
         stop-color="#447821"
         id="stop10" />
      <stop
         offset=".5"
         stop-color="#64b131"
         id="stop12" />
      <stop
         offset=".63"
         stop-color="#57992a"
         id="stop14" />
      <stop
         offset=".76"
         stop-color="#71c837"
         id="stop16" />
      <stop
         offset="1"
         stop-color="#447821"
         id="stop18" />
    </linearGradient>
    <linearGradient
       xlink:href="#b"
       id="d"
       x1="13.57"
       y1="23.64"
       x2="36.26"
       y2="25.86"
       gradientUnits="userSpaceOnUse" />
  </defs>
  <path
     d="M 40.89,17.42 33.06,47.97 H 14.94 L 7.11,17.42 13.01,0.03 H 35 Z"
     id="path24"
     style="fill:url(#c)"
     inkscape:connector-curvature="0" />
  <path
     d="m 18.28,43.82 -3.34,4.15 h 18.12 l -3.34,-4.15 z"
     id="path26"
     inkscape:connector-curvature="0"
     style="fill:#17280b;fill-opacity:0.1" />
  <path
     d="m 13.01,0.03 3.08,4.15 h 15.8 l 3.1,-4.15 z"
     id="path28"
     inkscape:connector-curvature="0"
     style="fill:#17280b;fill-opacity:0.35" />
  <path
     d="M 18.27,43.82 14.93,47.97 7.1,17.42 11.54,17.58 Z"
     id="path30"
     inkscape:connector-curvature="0"
     style="fill:#17280b;fill-opacity:0.47000002" />
  <path
     d="M 7.1,17.42 13,0.03 l 3.09,4.15 -4.55,13.4 z m 33.79,0 -5.9,-17.39 -3.09,4.15 4.55,13.4 z"
     id="path32"
     inkscape:connector-curvature="0"
     style="fill:#17280b;fill-opacity:0.70999995" />
  <path
     d="m 29.72,43.82 3.34,4.15 7.83,-30.55 -4.44,0.16 z"
     id="path34"
     inkscape:connector-curvature="0"
     style="fill:#17280b;fill-opacity:0.47000002" />
  <path
     d="M 25.09,41.2 22.9,6.8 35.747,20.51 29.72,43.82 28.287,43.77 Z"
     id="path36"
     style="opacity:0.63999999;fill:url(#d)"
     inkscape:connector-curvature="0" />
  <path
     d="m 22.91,6.8 v 26.7 h -3.94 l 6.12,7.7 V 14.48 h 3.94 z"
     id="path38"
     inkscape:connector-curvature="0"
     style="fill:#c6e9af" />
</svg>
